!!!!SEGMENT: Snf0252-Tristia_fata_boni.krn
!!!id: Snf0252
!!!AGN: Motet
!!!SCT: Edwards, Gasch, Tröster (2022)
!!!voices: 4
!!!COM: Ludwig Senfl
!!!OTL: Tristia fata boni
**kern	**text	**kern	**text	**kern	**text	**kern	**text
*part4	*part4	*part3	*part3	*part2	*part2	*part1	*part1
*staff4	*staff4	*staff3	*staff3	*staff2	*staff2	*staff1	*staff1
*I"Bassus	*	*I"Tenor	*	*I"Altus	*	*I"Superius	*
*I'B	*	*I'T	*	*I'A	*	*I'S	*
*clefF4	*	*clefGv2	*	*clefGv2	*	*clefG2	*
*	*	*	*	*	*	*	*
*k[]	*	*k[]	*	*k[]	*	*k[]	*
*	*	*	*	*	*	*	*
*M2/1	*	*M2/1	*	*M2/1	*	*M2/1	*
*met(C|)	*	*met(C|)	*	*met(C|)	*	*met(C|)	*
!!section: Prima pars: Tristia fata boni
!!!OMD: Prima pars: Tristia fata boni
=1	=1	=1	=1	=1	=1	=1	=1
1E	Tri-	0E	Tri-	1B	Tri-	0r	.
2G	-sti-	.	.	2B	-sti-	.	.
2G	-a	.	.	2B	-a	.	.
=2	=2	=2	=2	=2	=2	=2	=2
2.E	fa-	1G	-sti-	1e	fa-	0r	.
8DL	.	.	.	.	.	.	.
8CJ	.	.	.	.	.	.	.
4BB	.	1G	-a	2d	-ta	.	.
4AA	.	.	.	.	.	.	.
2BB	.	.	.	2d	bo-	.	.
=3	=3	=3	=3	=3	=3	=3	=3
1AA	-ta	0A	fa-	1c	-ni	0e	Tri-
1AA	bo-	.	.	2r	.	.	.
.	.	.	.	2c	so-	.	.
=4	=4	=4	=4	=4	=4	=4	=4
1E	-ni	1G	-ta	2B	-la-	1g	-sti-
.	.	.	.	2e	.	.	.
1G	so-	1B	bo-	4d	.	1g	-a
.	.	.	.	4c	.	.	.
.	.	.	.	4d	.	.	.
.	.	.	.	4e	.	.	.
=5	=5	=5	=5	=5	=5	=5	=5
0F	-la-	0c	-ni	1f	-tur	0a	fa-
.	.	.	.	2.f	spes	.	.
.	.	.	.	4e	.	.	.
=6	=6	=6	=6	=6	=6	=6	=6
1G	-tur	0B	so-	2.d	me-	1g	-ta
.	.	.	.	4c	.	.	.
1GG	spes	.	.	4B	.	1b	bo-
.	.	.	.	4A	.	.	.
.	.	.	.	4G	.	.	.
.	.	.	.	4F	.	.	.
=7	=7	=7	=7	=7	=7	=7	=7
2AA	me-	0A	-la-	2E	.	0cc	-ni
2AA	-li-	.	.	4A	-li-	.	.
.	.	.	.	4B	.	.	.
4AA	-o-	.	.	4c	.	.	.
4BB	.	.	.	4d	.	.	.
4C	.	.	.	[2e	.	.	.
4D	.	.	.	.	.	.	.
=8	=8	=8	=8	=8	=8	=8	=8
2.E	.	0G	-tur	2e]	.	0b	so-
.	.	.	.	2e	-o-	.	.
4F	.	.	.	.	.	.	.
2G	.	.	.	2d	.	.	.
2E	.	.	.	[2e	.	.	.
=9	=9	=9	=9	=9	=9	=9	=9
2.A	.	1c	spes	4e]	.	0a	-la-
.	.	.	.	4d	.	.	.
.	.	.	.	4c	.	.	.
4G	.	.	.	4B	.	.	.
4F	.	2d	me-	4A	.	.	.
4E	.	.	.	4G	.	.	.
2F	.	2d	-li-	2A	.	.	.
=10	=10	=10	=10	=10	=10	=10	=10
1E	-ris,	2.e	-o-	1B	-ris,	0g	-tur
.	.	4d	.	.	.	.	.
2r	.	2c	.	1r	.	.	.
2G	spes	2B	.	.	.	.	.
=11	=11	=11	=11	=11	=11	=11	=11
2.F	me-	2A	.	2r	.	1cc	spes
.	.	1c	.	1A	spes	.	.
4E	.	.	.	.	.	.	.
4D	.	.	.	.	.	2dd	me-
4C	.	.	.	.	.	.	.
2D	.	2B	.	2F	.	2dd	-li-
=12	=12	=12	=12	=12	=12	=12	=12
2.C	-li-	2c	.	2G	.	2.ee	-o-
.	.	1e	.	1g	me-	.	.
4D	.	.	.	.	.	4dd	.
4E	.	.	.	.	.	2cc	.
4F	.	.	.	.	.	.	.
[2G	.	[2d	.	[2g	-li-	[2b	.
=13	=13	=13	=13	=13	=13	=13	=13
4G]	.	4d]	.	4g]	.	4b]	.
4A	.	4c	.	4f	.	4a	.
2F	.	2A	.	2d	.	1a	.
1E	-o-	1B	.	1e	-o-	.	.
.	.	.	.	.	.	2g#i	.
=14	=14	=14	=14	=14	=14	=14	=14
[0AA	-ris.	[0A	-ris.	0c	-ris.	[0a	-ris.
=15	=15	=15	=15	=15	=15	=15	=15
0AA]	.	0A]	.	1r	.	0a]	.
.	.	.	.	1c	Non	.	.
=16	=16	=16	=16	=16	=16	=16	=16
0r	.	0r	.	2f	me-	1r	.
.	.	.	.	2f	-mi-	.	.
.	.	.	.	1e	-nis-	1g	Non
=17	=17	=17	=17	=17	=17	=17	=17
0r	.	0r	.	2A	-se	2cc	me-
.	.	.	.	2A	iu-	2cc	-mi-
.	.	.	.	1d	-vat	1b	-nis-
=18	=18	=18	=18	=18	=18	=18	=18
0r	.	0r	.	2r	.	2e	-se
.	.	.	.	2c	dum	2e	iu-
.	.	.	.	2c	re-	1a	-vat
.	.	.	.	2d	-pu-	.	.
=19	=19	=19	=19	=19	=19	=19	=19
0r	.	0r	.	1.e	-tas-	2r	.
.	.	.	.	.	.	2g	dum
.	.	.	.	.	.	2g	re-
.	.	.	.	2c	-se	2a	-pu-
=20	=20	=20	=20	=20	=20	=20	=20
0r	.	0r	.	2d	no-	1.b	-tas-
.	.	.	.	1.e	.	.	.
.	.	.	.	.	.	2g	-se
=21	=21	=21	=21	=21	=21	=21	=21
0r	.	0r	.	2c	.	2a	no-
.	.	.	.	2d	.	2b	.
.	.	.	.	1c	.	2e	.
.	.	.	.	.	.	[2g	.
=22	=22	=22	=22	=22	=22	=22	=22
1C	Non	0r	.	2G	.	4g]	.
.	.	.	.	.	.	4f	.
.	.	.	.	1c	.	1e	.
2F	me-	.	.	.	.	.	.
2F	-mi-	.	.	4B	.	2d	.
.	.	.	.	4A	.	.	.
=23	=23	=23	=23	=23	=23	=23	=23
1E	-nis-	1G	Non	1B	.	0e	-cet,
2AA	-se	2c	me-	2A	.	.	.
2AA	iu-	2c	-mi-	[2e	.	.	.
=24	=24	=24	=24	=24	=24	=24	=24
1D	-vat	1B	-nis-	2e]	.	1r	.
.	.	.	.	2d	.	.	.
2r	.	2E	-se	2.g	.	2r	.
2C	dum	2E	iu-	.	.	2e	dum
.	.	.	.	4f	.	.	.
=25	=25	=25	=25	=25	=25	=25	=25
2C	re-	1A	-vat	2e	.	2e	re-
2D	-pu-	.	.	4d	.	2f	-pu-
.	.	.	.	4c	.	.	.
[1E	-tas-	2r	.	2B	.	1g	-tas-
.	.	2G	dum	[2c	.	.	.
=26	=26	=26	=26	=26	=26	=26	=26
2E]	.	2G	re-	4c]	.	1e	-se
.	.	.	.	4B	.	.	.
2C	-se	2A	-pu-	1A	.	.	.
2D	.	1B	-tas-	.	.	2r	.
2E	.	.	.	2G	.	2g	no-
=27	=27	=27	=27	=27	=27	=27	=27
2AA	.	2A	-se	2F	.	2a	.
2.C	no-	2.e	no-	1E	.	1g	.
4BB	.	4d	.	.	.	.	.
[2AA	.	4c	.	2A	.	[2cc	.
.	.	4B	.	.	.	.	.
=28	=28	=28	=28	=28	=28	=28	=28
2AA]	.	2A	.	2F	.	2cc]	.
2GG	.	2B	.	2G	.	1b	.
1AA	.	1c	.	2.E	.	.	.
.	.	.	.	.	.	2a	.
.	.	.	.	4F	.	.	.
=29	=29	=29	=29	=29	=29	=29	=29
1E	-cet,	1B	-cet,	1G	-cet,	1b	-cet,
1r	.	1r	.	1r	.	1r	.
=30	=30	=30	=30	=30	=30	=30	=30
0F	Tem-	1r	.	0A	Tem-	0a	Tem-
.	.	[1d	Tem-	.	.	.	.
=31	=31	=31	=31	=31	=31	=31	=31
1D	-pus	1d]	.	1A	-pus	1f	-pus
1E	e-	1B	-pus	1G	e-	1g	e-
=32	=32	=32	=32	=32	=32	=32	=32
0AA	-nim	1c	e-	1A	-nim	0e	-nim
.	.	[1A	-nim	2.c	ra-	.	.
.	.	.	.	4B	.	.	.
=33	=33	=33	=33	=33	=33	=33	=33
1D	ra-	1A]	.	2A	.	1f	ra-
.	.	.	.	2F	-pi-	.	.
1GG	-pi-	1B	ra-	1G	-da	1d	-pi-
=34	=34	=34	=34	=34	=34	=34	=34
1C	-da	1G	-pi-	2E	quam-	0e	-da
.	.	.	.	2e	-vis	.	.
2AA	quam-	[1A	-da	[1c	me-	.	.
2A	-vis	.	.	.	.	.	.
=35	=35	=35	=35	=35	=35	=35	=35
1.F	me-	1A]	.	2c]	.	0a	quam-
.	.	.	.	4B	.	.	.
.	.	.	.	4A	.	.	.
.	.	[1d	quam-	[1A	-tat	.	.
4E	.	.	.	.	.	.	.
4D	.	.	.	.	.	.	.
=36	=36	=36	=36	=36	=36	=36	=36
0D	-tat	1d]	.	0A_	.	0a	-vis
.	.	[1d	-vis	.	.	.	.
=37	=37	=37	=37	=37	=37	=37	=37
1D	o-	1d]	.	1A]	.	1f	me-
1E	-mni-	1B	me-	1G	o-	1g	-tat
=38	=38	=38	=38	=38	=38	=38	=38
0AA	-a	1c	-tat	1A	.	0e	o-
.	.	[1A	o-	2.c	.	.	.
.	.	.	.	4B	.	.	.
=39	=39	=39	=39	=39	=39	=39	=39
1D	fal-	1A]	.	2A	.	1f	-mni-
.	.	.	.	2F	.	.	.
1GG	.	1B	-mni-	1G	-mni-	1d	-a
=40	=40	=40	=40	=40	=40	=40	=40
1C	.	1G	-a	2E	.	1.e	fal-
.	.	.	.	2e	.	.	.
1AA	.	[1A	fal-	1c	-a	.	.
.	.	.	.	.	.	[2f	.
=41	=41	=41	=41	=41	=41	=41	=41
2A	.	2A]	.	1r	.	4f]	.
.	.	.	.	.	.	4e	.
2G	.	2.B	.	.	.	1e	.
1F	.	.	.	2r	.	.	.
.	.	4A	.	.	.	.	.
.	.	[2A	.	2A	fal-	2d	.
=42	=42	=42	=42	=42	=42	=42	=42
1E	.	2A]	.	1B	.	[0e	-ce,
.	.	2G#i	.	.	.	.	.
1AA	.	1A	.	1c	.	.	.
=43	=43	=43	=43	=43	=43	=43	=43
[0E	-ce,	[0G	-ce,	0B	-ce,	1e]	.
.	.	.	.	.	.	1r	.
=44	=44	=44	=44	=44	=44	=44	=44
0E]	.	0G]	.	1r	.	1e	Non
.	.	.	.	1B	Non	2g	ta-
.	.	.	.	.	.	2g	-men
=45	=45	=45	=45	=45	=45	=45	=45
0r	.	0r	.	2d	ta-	1f	ae-
.	.	.	.	2d	-men	.	.
.	.	.	.	1c	ae-	1a	-ter-
=46	=46	=46	=46	=46	=46	=46	=46
1E	Non	1r	.	1e	-ter-	2g	-no,
.	.	.	.	.	.	2g	non
2G	ta-	1B	Non	1d	-no	2b	ta-
2G	-men	.	.	.	.	2b	-men
=47	=47	=47	=47	=47	=47	=47	=47
1F	ae-	2d	ta-	1f	lu-	1a	ae-
.	.	2d	-men	.	.	.	.
1A	-ter-	1c	ae-	2e	-mi-	1cc	-ter-
.	.	.	.	2e	-ne	.	.
=48	=48	=48	=48	=48	=48	=48	=48
1G	-no	1e	-ter-	1.g	di-	1b	-no
1G	lu-	1d	-no	.	.	1b	lu-
.	.	.	.	2d	-gna	.	.
=49	=49	=49	=49	=49	=49	=49	=49
2F	-mi-	1d	lu-	1f	se-	2a	-mi-
2F	-ne	.	.	.	.	2a	-ne
1A	di-	2c	-mi-	4e	.	1cc	di-
.	.	.	.	4d	.	.	.
.	.	2c	-ne	4e	.	.	.
.	.	.	.	4f	.	.	.
=50	=50	=50	=50	=50	=50	=50	=50
2G	-gna	1d	di-	2g	.	2b	-gna
2F	se-	.	.	2d	.	1a	se-
1E	.	2c	-gna	1e	.	.	.
.	.	2B	se-	.	.	2g#i	.
=51	=51	=51	=51	=51	=51	=51	=51
1AA	-cat,	0A	-cat,	1c	-cat,	1a	-cat,
1r	.	.	.	1r	.	1r	.
=52	=52	=52	=52	=52	=52	=52	=52
1AA	non	0r	.	2.c	non	1e	non
.	.	.	.	4B	.	.	.
2E	ta-	.	.	4G	.	2g	ta-
.	.	.	.	4A	.	.	.
2E	-men	.	.	4B	.	2g	-men
.	.	.	.	4c	.	.	.
=53	=53	=53	=53	=53	=53	=53	=53
1D	ae-	0r	.	2.d	ta-	1f	ae-
.	.	.	.	4c	.	.	.
1F	-ter-	.	.	4A	-men	1a	-ter-
.	.	.	.	4B	.	.	.
.	.	.	.	4c	.	.	.
.	.	.	.	4d	.	.	.
=54	=54	=54	=54	=54	=54	=54	=54
2.C	-no	1E	non	2.e	ae-	2g	-no,
.	.	.	.	.	.	2g	non
4BB	.	.	.	4d	.	.	.
4GG	.	2G	ta-	4B	-ter-	2b	ta-
4AA	.	.	.	4c	.	.	.
4BB	.	2G	-men	4d	.	2b	-men
4C	.	.	.	4e	.	.	.
=55	=55	=55	=55	=55	=55	=55	=55
2.D	lu-	1F	ae-	2.f	-no	1a	ae-
4C	.	.	.	4e	.	.	.
4AA	.	1A	-ter-	4c	lu-	1cc	-ter-
4BB	.	.	.	4d	.	.	.
4C	.	.	.	4e	.	.	.
4D	.	.	.	4f	.	.	.
=56	=56	=56	=56	=56	=56	=56	=56
2.E	-mi-	1G	-no	2.g	-mi-	1b	-no
4F	.	.	.	4f	.	.	.
2.G	-ne	1r	.	2d	-ne	1b	lu-
.	.	.	.	2e	di-	.	.
4F	.	.	.	.	.	.	.
=57	=57	=57	=57	=57	=57	=57	=57
4D	.	1d	lu-	2f	-gna	2a	-mi-
4E	.	.	.	.	.	.	.
4F	.	.	.	2.a	se-	2a	-ne
4G	.	.	.	.	.	.	.
1A	.	2c	-mi-	.	.	1cc	di-
.	.	.	.	4g	.	.	.
.	.	2c	-ne	4e	.	.	.
.	.	.	.	4f	.	.	.
=58	=58	=58	=58	=58	=58	=58	=58
2G	di-	1d	di-	2g	.	2b	-gna
2D	-gna	.	.	2f	.	1a	se-
1E	se-	2c	-gna	1e	.	.	.
.	.	2B	se-	.	.	2g#i	.
=59	=59	=59	=59	=59	=59	=59	=59
00AAl	-cat.	00Al	-cat.	00cl	-cat.	00al	-cat.
==	==	==	==	==	==	==	==
*-	*-	*-	*-	*-	*-	*-	*-
!!!system-decoration: [*]
!!!RDF**kern: i = editorial accidental
!!!RDF**kern: l = terminal long
!!!PTL: <i> New Senfl Edition: Motets for Four Voices (N-V) </i>
!!!PPR: Hollitzer Verlag
!!!PC#: Denkmäler der Tonkunst in Österreich 163.2
!!!PDT: 2022
!!!PED: Scott Lee Edwards, Stefan Gasch, and Sonja Tröster
!!!YEC: Copyright 2022 Denkmäler der Tonkunst in Österreich
!!!YEM: CC-BY-NC 4.0 (https://creativecommons.org/licenses/by-nc/4.0/legalcode)
!!!EED: Benjamin Ory
!!!EEV: 2024/2/1
!!!verovio: header true
!!!header-left: @{PTL}\n@{PED}, eds.\n@{PC#} (@{PDT})&nbsp;\n
!!!header-right:
!!!header-center:
